remix/Logos/twitch-fill.svg

<svg viewBox="0 0 24 24" fill="currentColor" xmlns="http://www.w3.org/2000/svg"><path d="M21.001 3V14.7391L16.3053 19.4348H12.3923L9.95523 21.7826H6.91402V19.4348H3.00098V6.13043L4.2281 3H21.001ZM19.4358 4.56522H6.13141V16.3043H9.26185V18.6522L11.6097 16.3043H16.3053L19.4358 13.1739V4.56522ZM16.3053 7.69565V12.3913H14.7401V7.69565H16.3053ZM12.3923 7.69565V12.3913H10.8271V7.69565H12.3923Z"/></svg>

<svg viewBox="0 0 24 24" xmlns="http://www.w3.org/2000/svg"><path fill="none" d="M0 0h24v24H0Z"/><path d="M21 3v11.74l-4.7 4.695h-3.92l-2.44 2.34H6.89v-2.35H2.97V6.12l1.22-3.13h16.773Zm-1.57 1.56H6.125V16.3h3.13v2.34l2.349-2.35h4.69l3.13-3.13V4.55ZM16.3 7.69v4.69h-1.57v-4.7h1.56Zm-3.92 0v4.69h-1.57v-4.7h1.56Z"/></svg>
